X:1
T:BWV 1010M
T:J. S. Bach
%%score { ( 1 3 ) | ( 2 4 ) }
L:1/8
Q:1/4=184
M:2/2
K:D
V:1 treble nm="Harp"
V:3 treble 
V:2 treble 
V:4 treble 
V:1
"^Presto" D,dAF ADFA, | D,dAF ADFA, | D,=cAF ADFA, | D,=cAF ADFA, | D,BGD GB,DG, | D,BGD GB,DG, | %6
 D,GEC EA,CG, | D,GEC EA,CG, | D,FDA, DF,A,D, | C,FDA, DF,A,C, | B,,dBF BDFB, | A,dBF BDFA, | %12
 ^G,dBE ^GB,DG, | E,dB^G BEGD | A,cAE ACEA, | G,cAE ACEG, | F,=cAD FA,DF, | D,=cAF ADF=C | %18
 G,BGD GB,DG, | F,BGD GB,DF, | E,GC^A, CG,_B,E, | D,GEB, EG,B,D, | C,GE^A, EF,G,C, | %23
 B,,GEB, EG,B,E, | ^A,cGE GCEA, | F,c^AE GCE^A, | B,,dBF BDFB, | B,,dBF BDFB, | A,^dBF B^DFB, | %29
 A,^dBF B^DFA, | G,eBG BEG^D | EBG^D EB,EG, | _E,=cAF A^DFB, | =CAF^D FA,^B,^D, | E,AG^D EG,B,E, | %35
 D,GEB, EG,B,D, | C,GEC EA,CE | GC,E,A, CA,GE | D,FDA, DF,A,D, | F,A,DA, FDAF | B^G,B,^E ^GEBG | %41
 dF,B,D FDBF | d^E,^G,B, DB,^EB, | ^GC^EG BGcG | F,AFC FA,CF, | E,AFC FA,CF, | D,AFC FA,CF, | %47
 C,AFC FA,CF, | !fermata!^B,,2 z2 z ^B,/C/ ^D/^E/F/^G/ | A/^G/F/^E/ F/^D/^B,/C/ D/E/F/G/ A/G/F/G/ | %50
 A/B/c/B/ d/c/B/A/ ^G/A/B/A/ G/F/^E/F/ | C,B^G^E GCE^G, | C,B^G^E GCE^G, | C,AFC FA,CF, | %54
 C,AFC FA,CF, | C,/^B/A/^G/ A/=c/A/G/ A/c/A/G/ A/c/A/G/ | F/A/F/^E/ F/A/F/E/ F/A/F/E/ F/A/F/E/ | %57
 ^D/F/D/C/ ^B,/D/B,/^A,/ ^G,/B,/G,/F,/ ^E,/G,/E,/^D,/ | d2- d/c/B/A/ ^G/F/^E/^D/ C/B,/A,/^G,/ | %59
 c>B A/^G/A/F/ A>G F/^E/F/^B,/ | F>^G F/^E/F/^D/ F/4E/4F/4E/4F/4E/4F/4E/4 F/4E/4F/4E/4F | %61
 F,AFC FA,C^E, | F,A,CF AFcE | F,=cAF A^DFA, | =CF,A,^D FD^BD | G,BGE GB,EG, | B,EGE BEcE | %67
 ^G,dB^G BD=FB, | D^G,B,D ^E^GBd | A,c _B/A/^G Ac B/A/G | A_B A/G/F GB A/G/F | GA G/=F/E FA G/F/E | %72
 =FF _E/D/C DF E/D/C | D_B,DG _BGdB | G_BGD _B,G,EG, | B,,^G,^EC D/=F/D/C/ D/F/D/C/ | %76
 D/_A/=F/E/ F/A/F/E/ F/B/F/E/ F/d/F/E/ | =FA,DF AFdA | =FDAF DA,FD | %79
 D2- D/=F/_E/F/ G/_A/G/A/ _B/=A/B/A/ | G/=F/G/F/ _E/D/C/D/ D/4C/4D/4C/4D/4C/4D/4C/4 D/4C/4D/4C/4D | %81
 D,dAF ADFA, | D,dAF ADFA, | D,=cAF ADFA, | D,=cAF ADFA, | D,BGD GB,DG, | D,BGD GB,DG, | %87
 C2- C/B,/A,/B,/ C/D/E/F/ G/E/F/G/ | C/D/E/A,/ B,/C/D/E/ F/G/A/B/ c/B/d/c/ | %89
 d/4c/4d/4c/4d/4c/4d/4c/4 d/4c/4A/G/F/ E/D/C/B,/ A,/G,/F,/E,/ | !fermata!d2 z2 z4 | %91
[M:2/2][Q:1/4=132]"^Allegro" z4 z2 z A | dc/B/ A/G/F/G/ A/G/F/E/ D/C/B,/A,/ | %93
 B,/D/E/F/ G/F/E/D/ C/D/E/C/A,A,/4G,/4A,/4G,/4 | F,/A,/B,/C/D=c G,BED | E,/G,/A,/B,/CB F,ADC | %96
 D,/F,/G,/A,/B,A E,GCA/G/ | F/E/D/F/ E/D/C/E/ D2- D/E/C/D/ | %98
 E/D/C/B,/ A,/B,/C/D/ E/F/G/E/ F/E/D/E/ | F/E/D/C/ B,/C/D/E/ F/^G/A/F/ G/F/E/F/ | %100
 ^G/F/E/D/CB F,/A,/B,/C/Dc | B/A/^G/F/Ed A,/C/D/E/Fe | d/c/B/A/^Gf e/d/c/B/A=G | %103
 F/E/D/C/B,A, ^G,/D/ F2 E/D/ | C/B,/A,/C/ B,/A,/^G,/B,/ A,/C/B,/A,/ B,/D/C/B,/ | %105
 C/D/E/F/GA, D,G F/E/D/C/ | B,/C/D/E/FA ^G/A/B/A/ G/F/E/D/ | C/B,/A,/C/ B,/A,/^G,/B,/ A,3 A | %108
 dc/B/ A/G/F/G/ A/G/F/E/ D/C/B,/A,/ | B,/D/E/F/ G/F/E/D/ C/D/E/C/A,A,/4G,/4A,/4G,/4 | %110
 F,/A,/B,/C/D=c G,BED | E,/G,/A,/B,/CB F,ADC | D,/F,/G,/A,/B,A E,GCA/G/ | %113
 F/E/D/F/ E/D/C/E/ D2- D/E/C/D/ | E/D/C/B,/ A,/B,/C/D/ E/F/G/E/ F/E/D/E/ | %115
 F/E/D/C/ B,/C/D/E/ F/^G/A/F/ G/F/E/F/ | ^G/F/E/D/CB F,/A,/B,/C/Dc | B/A/^G/F/Ed A,/C/D/E/Fe | %118
 d/c/B/A/^Gf e/d/c/B/A=G | F/E/D/C/B,A, ^G,/D/ F2 E/D/ | %120
 C/B,/A,/C/ B,/A,/^G,/B,/ A,/C/B,/A,/ B,/D/C/B,/ | C/D/E/F/GA, D,G F/E/D/C/ | %122
 B,/C/D/E/FA ^G/A/B/A/ G/F/E/D/ | C/B,/A,/C/ B,/A,/^G,/B,/ A,3 E | %124
 A^G/F/ E/D/C/D/ E/D/C/B,/ A,/G,/F,/E,/ | F,/D/E/F/ C/G/F/E/ F/G/A/F/DC/B,/ | %126
 ^A,/B,/C/D/EG c/B/^A/^G/FE | B,/C/D/E/ F/^A/B/c/ d/c/B/=A/ G/F/E/D/ | %128
 G/F/E/D/ C/B,/^A,/^G,/ E/D/C/B,/ A,/G,/F,/E,/ | D,BF,^A B3 B/c/ | %130
 d/c/d/c/ B/A/B/A/ ^G/A/G/A/ B/c/B/c/ | d/c/d/c/ B/A/^G/F/ ^E/F/G/B/cB, | %132
 A,c D/F/^G/A/ B^G, C/^E/F/G/ | A/^G/F/A/ G/F/^E/G/ FCF,A/B/ | %134
 =c/B/c/B/ A/G/A/G/ F/E/F/E/ ^D/F/G/A/ | B/A/G/B/ A/G/F/A/ GEE,E/F/ | %136
 G/F/E/D/ C/D/E/F/ G/A/B/c/ d/c/d/c/ | d/c/B/A/ G/F/E/D/ E/D/C/B,/A,E | A,/B,/C/D/EF B,GCG | %139
 D/E/F/G/AB E=cFc | B/A/G/F/GB e/d/c/d/ e/d/c/B/ | A/G/F/E/FA d/c/B/c/ d/c/B/A/ | %142
 G/F/E/F/ G/F/E/D/ C/B,/A,/B,/ C/B,/A,/G,/ | F,/A,/B,/C/D=c G,c B/A/G/F/ | %144
 G/F/E/D/CB F,B A/G/F/E/ | F/E/D/C/ B,/A,/G,/F,/ E,/G/F/E/ A,/G/F/E/ | %146
 D,/F/E/D/ _A,/=F/E/D/ C/E/ B2 A/G/ | F/E/D/E/A,c d3 E | A^G/F/ E/D/C/D/ E/D/C/B,/ A,/G,/F,/E,/ | %149
 F,/D/E/F/ C/G/F/E/ F/G/A/F/DC/B,/ | ^A,/B,/C/D/EG c/B/^A/^G/FE | %151
 B,/C/D/E/ F/^A/B/c/ d/c/B/=A/ G/F/E/D/ | G/F/E/D/ C/B,/^A,/^G,/ E/D/C/B,/ A,/G,/F,/E,/ | %153
 D,BF,^A B3 B/c/ | d/c/d/c/ B/A/B/A/ ^G/A/G/A/ B/c/B/c/ | d/c/d/c/ B/A/^G/F/ ^E/F/G/B/cB, | %156
 A,c D/F/^G/A/ B^G, C/^E/F/G/ | A/^G/F/A/ G/F/^E/G/ FCF,A/B/ | %158
 =c/B/c/B/ A/G/A/G/ F/E/F/E/ ^D/F/G/A/ | B/A/G/B/ A/G/F/A/ GEE,E/F/ | %160
 G/F/E/D/ C/D/E/F/ G/A/B/c/ d/c/d/c/ | d/c/B/A/ G/F/E/D/ E/D/C/B,/A,E | A,/B,/C/D/EF B,GCG | %163
 D/E/F/G/AB E=cFc | B/A/G/F/GB e/d/c/d/ e/d/c/B/ | A/G/F/E/FA d/c/B/c/ d/c/B/A/ | %166
 G/F/E/F/ G/F/E/D/ C/B,/A,/B,/ C/B,/A,/G,/ | F,/A,/B,/C/D=c G,c B/A/G/F/ | %168
 G/F/E/D/CB F,B A/G/F/E/ | F/E/D/C/ B,/A,/G,/F,/ E,/G/F/E/ A,/G/F/E/ | %170
 D,/F/E/D/ _A,/=F/E/D/ C/E/ B2 A/G/ | F/E/D/E/A,c !fermata!d3 z | z8 |[M:2/2] z4 z2 z D | %174
 DA,B,G, E,C D2 | D,/C/D/E/ F/E/F/^G/ AEFD | B,^G A2 A,A,/4G,/4A,/4G,/4F,D | %177
 (3G,A,B, (3B,CD (3EFG (3F,G,A, | (3A,B,C (3DEF (3EFG (3FED | (3A,DC D2 D,/A,/B,/C/ D/C/D/E/ | %180
 FDFC B,A ^G2 | D,/B,/C/D/ E/D/E/F/ ^GEGD | CB A2 C,/C/D/E/ F/E/F/^G/ | AFAE DcB^G | BFEd cAc^G | %185
 FedB d^GEd | cAcF DB ^G2- | (3GEF (3^GAB B2- (3BGA | (3Bcd d2- (3dBc (3def | f2 ed cBcA | %190
 DBE^G A2 A,/A/G/F/ | E/F/E/D/(3CA,B, (3CDE (3EF^G | AC B,3 A, A,2- | A,2 z D DA,B,G, | %194
 E,C D2 D,/C/D/E/ F/E/F/^G/ | AEFD B,^G A2 | A,A,/4G,/4A,/4G,/4F,D (3G,A,B, (3B,CD | %197
 (3EFG (3F,G,A, (3A,B,C (3DEF | (3EFG (3FED (3A,DC D2 | D,/A,/B,/C/ D/C/D/E/ FDFC | %200
 B,A ^G2 D,/B,/C/D/ E/D/E/F/ | ^GEGD CB A2 | C,/C/D/E/ F/E/F/^G/ AFAE | DcB^G BFEd | cAc^G FedB | %205
 d^GEd cAcF | DB ^G2- (3GEF (3GAB | B2- (3B^GA (3Bcd d2- | (3dBc (3def f2 ed | cBcA DBE^G | %210
 A2 A,/A/^G/F/ E/F/E/D/(3CA,B, | (3CDE (3EF^G AC B,2- | B,A, A,4 z E | %213
 ECFD ^G,E D/4C/4D/4C/4D/4C/4D/4C/4 | A,B,/C/ D/C/D/E/ FDGE | %215
 ^A,F E/4D/4E/4D/4E/4D/4E/4D/4 B,,/F/^G/^A/ B/A/B/c/ | dcdB dAdG | dFEd cBcA | cGcF cEDc | %219
 BABG BFBE | BDCE GFGE | GDGC GB,^A,C | EDEC EB,E^A, | E^G,F,^A BdEc | %224
 F^A B2 B,,/F,/^G,/^A,/ B,/A,/B,/C/ | ^D/C/D/E/ F/E/F/G/ A/G/A/F/(3GFE | %226
 (3EDC (3CB,A, A,/B,/C/D/ E/D/E/F/ | G/F/G/E/(3FED (3DCB, (3B,A,G, | %228
 G,B/A/ G/A/G/F/ E/F/E/D/ C/D/C/B,/ | A,/B,/A,/G,/ F,/G,/F,/E,/ D,d A/G/F/E/ | DA,F,=c A/G/F/E/Dc | %231
 G,=c B/A/G/F/ EBF,B | A/G/F/E/^DA E,A G/F/E/=D/ | CGD,G F/E/D/C/DF | %234
 ^G,B,D^E ^GB D/4C/4D/4C/4D/4C/4D/4C/4 | (3DA,B, (3CDE E2- (3ECD | (3EFG G2- (3GEF (3GAB | %237
 B2 AG FEFD | G,EA,C D2 D,/A,/B,/C/ | D/C/D/E/(3FDE (3FGA (3ABc | dF E3 D D2- | D2 z E ECFD | %242
 ^G,E D/4C/4D/4C/4D/4C/4D/4C/4 A,B,/C/ D/C/D/E/ | FDGE ^A,F E/4D/4E/4D/4E/4D/4E/4D/4 | %244
 B,,/F/^G/^A/ B/A/B/c/ dcdB | dAdG dFEd | cBcA cGcF | cEDc BABG | BFBE BDCE | GFGE GDGC | %250
 GB,^A,C EDEC | EB,E^A, E^G,F,^A | BdEc F^A B2 | B,,/F,/^G,/^A,/ B,/A,/B,/C/ ^D/C/D/E/ F/E/F/G/ | %254
 A/G/A/F/(3GFE (3EDC (3CB,A, | A,/B,/C/D/ E/D/E/F/ G/F/G/E/(3FED | %256
 (3DCB, (3B,A,G, G,B/A/ G/A/G/F/ | E/F/E/D/ C/D/C/B,/ A,/B,/A,/G,/ F,/G,/F,/E,/ | %258
 D,d A/G/F/E/ DA,F,=c | A/G/F/E/D=c G,c B/A/G/F/ | EBF,B A/G/F/E/^DA | E,A G/F/E/D/ CGD,G | %262
 F/E/D/C/DF ^G,B,D^E | ^GB D/4C/4D/4C/4D/4C/4D/4C/4 (3DA,B, (3CDE | E2- (3ECD (3EFG G2- | %265
 (3GEF (3GAB B2 AG | FEFD G,EA,C | D2 D,/A,/B,/C/ D/C/D/E/(3FDE | (3FGA (3ABc dF E2- | %269
 ED !fermata!D4 z2 |[M:3/4] A2 =c/4B/4c/4B/4c/4B/4c/4B/4 c2 | =c>A{/A} B2- B/A/G/F/ | %272
 E2 G/4F/4G/4F/4G/4F/4G/4F/4 G2 | G>E F>A D2 | D>B, C>E G2- | G>E F>A =c2- | c>A B>^d f2 | %277
 A2- A/4^G/4A/4G/4A/4G/4F/ E>D | A>c e>^G A2- | A>c f>^G A2- | A^G/F/ ED{/D} CD/B,/ | %281
 B,/4A,/4B,/4A,/4B,/4A,/4B,/4A,/4 B,/4A,/4B,/4A,/4B,/4A,/4B,/4A,/4 B,/4A,/4B,/4A,/4B,/4A,/4B,/4A,/4 | %282
 A2 =c/4B/4c/4B/4c/4B/4c/4B/4 c2 | =c>A{/A} B2- B/A/G/F/ | E2 G/4F/4G/4F/4G/4F/4G/4F/4 G2 | %285
 G>E F>A D2 | D>B, C>E G2- | G>E F>A =c2- | c>A B>^d f2 | A2- A/4^G/4A/4G/4A/4G/4F/ E>D | %290
 A>c e>^G A2- | A>c f>^G A2- | A^G/F/ ED{/D} CD/B,/ | %293
 B,/4A,/4B,/4A,/4B,/4A,/4B,/4A,/4 B,/4A,/4B,/4A,/4B,/4A,/4B,/4A,/4 B,/4A,/4B,/4A,/4B,/4A,/4B,/4A,/4 | %294
 E2 G/4F/4G/4F/4G/4F/4G/4F/4 G2- | G>E{/E} F2- F/E/D/C/ | d2 c2 B2 | B>^G ^A>c F>E | %298
{/E} ^D2{/F} E2{/G} F2 | G>E C>^A B2- | B>c d/4c/4d/4c/4d/4c/4d/4c/4 d/4c/4d/4c/4B | %301
 B>F D>F B,>A, | B2 c2 d2 | d>B c>e G2 | G>E F>A D2- | D>B, C>E A,>G, | D>F A>C D2- | D>F B>C D2- | %308
 D>G F>E DE/C/ | DF/A/ dA/F/ D2- | D>^E B>=E d2- | dc/B/ c>e A2- | AG/F/ ED A,D/C/ | %313
 D,/F,/A,/C/ D/F/A/c/ d2 | E2 G/4F/4G/4F/4G/4F/4G/4F/4 G2- | G>E{/E} F2- F/E/D/C/ | d2 c2 B2 | %317
 B>^G ^A>c F>E |{/E} ^D2{/F} E2{/G} F2 | G>E C>^A B2- | %320
 B>c d/4c/4d/4c/4d/4c/4d/4c/4 d/4c/4d/4c/4B | B>F D>F B,>A, | B2 c2 d2 | d>B c>e G2 | G>E F>A D2- | %325
 D>B, C>E A,>G, | D>F A>C D2- | D>F B>C D2- | D>G F>E DE/C/ | DF/A/ dA/F/ D2- | D>^E B>=E d2- | %331
 dc/B/ c>e A2- | AG/F/ ED A,D/C/ | D,/F,/A,/C/ D/F/A/c/ !fermata!d2 |[M:2/2] z4 z2 D/E/F/G/ | %335
 A2 BG A2 BF | G2 E2 E,2 C/D/E/F/ | G2 AF G2 AE | F2 D2 D,2 D/E/F/G/ | A2 A,/B,/C/D/ E2 G2 | %340
 GFED E2 D/E/F/G/ | A2 A,/B,/C/D/ E2 G2 | GFED E2 E/F/^G/A/ | B2 ^G/A/B/c/ d2 E/F/G/A/ | %344
 B2 ^G/A/B/c/ d2 cB | cAFA DBE^G | A2 C2 A,2 D/E/F/G/ | A2 BG A2 BF | G2 E2 E,2 C/D/E/F/ | %349
 G2 AF G2 AE | F2 D2 D,2 D/E/F/G/ | A2 A,/B,/C/D/ E2 G2 | GFED E2 D/E/F/G/ | A2 A,/B,/C/D/ E2 G2 | %354
 GFED E2 E/F/^G/A/ | B2 ^G/A/B/c/ d2 E/F/G/A/ | B2 ^G/A/B/c/ d2 cB | cAFA DBE^G | %358
 A2 C2 A,2 A,/B,/C/D/ | E2 FD E2 AE | F2 D2 D,2 G/F/E/D/ | C2 E/D/C/B,/ ^A,2 C/B,/A,/^G,/ | %362
 F,CE^A c2 F/E/D/C/ | D2 B,,/C,/D,/E,/ F,2 c/B/^A/^G/ | ^A2 F,/^G,/^A,/B,/ C2 f/e/d/c/ | %365
 d2 d/c/B/^A/ B2 B/=A/G/F/ | G2 G/F/E/D/ C2 B^A | BGEG CBF^A | B2 F,2 B,,2 B,/C/^D/E/ | %369
 F2 GE F2 BF | AGFE dcBA | d2 D/E/F/G/ A2 B2 | DCB,C A,2 A,/B,/C/D/ | E2 C/D/E/F/ G2 A,/B,/C/D/ | %374
 E2 C/D/E/F/ G2 D/E/F/G/ | A2 F/G/A/B/ =c2 D/E/F/G/ | A2 F/G/A/B/ =c2 BA | BAAG AFF,F/G/ | %378
 AF/G/AG/F/ GEE,G | F/E/D/C/DA F/E/D/C/Dd | G/F/E/F/ G/F/E/F/ G/F/E/D/ C/B,/A,/G,/ | F,DBG A2 BF | %382
 G2 E2 E,2 B/A/G/F/ | E2 G/F/E/D/ C2 E/D/C/B,/ | A,CEG e2 d/c/B/A/ | d2 D/E/F/G/ A2 B2 | %386
 DCB,C A,2 d/c/B/A/ | d2 D/E/F/G/ A2 B2 | =c/B/A B3 A/G/ A/G/F | G/F/E F3 E/D/ E/D/C | %390
 DA,F,A, D,2 A,/B,/C/D/ | E2 C/D/E/F/ G2 A,/B,/C/D/ | E2 C/D/E/F/ G2 FE | FAdF EDA,c | %394
 d6 A,/B,/C/D/ | E2 FD E2 AE | F2 D2 D,2 G/F/E/D/ | C2 E/D/C/B,/ ^A,2 C/B,/A,/^G,/ | %398
 F,CE^A c2 F/E/D/C/ | D2 B,,/C,/D,/E,/ F,2 c/B/^A/^G/ | ^A2 F,/^G,/^A,/B,/ C2 f/e/d/c/ | %401
 d2 d/c/B/^A/ B2 B/=A/G/F/ | G2 G/F/E/D/ C2 B^A | BGEG CBF^A | B2 F,2 B,,2 B,/C/^D/E/ | %405
 F2 GE F2 BF | AGFE dcBA | d2 D/E/F/G/ A2 B2 | DCB,C A,2 A,/B,/C/D/ | E2 C/D/E/F/ G2 A,/B,/C/D/ | %410
 E2 C/D/E/F/ G2 D/E/F/G/ | A2 F/G/A/B/ =c2 D/E/F/G/ | A2 F/G/A/B/ =c2 BA | BAAG AFF,F/G/ | %414
 AF/G/AG/F/ GEE,G | F/E/D/C/DA F/E/D/C/Dd | G/F/E/F/ G/F/E/F/ G/F/E/D/ C/B,/A,/G,/ | F,DBG A2 BF | %418
 G2 E2 E,2 B/A/G/F/ | E2 G/F/E/D/ C2 E/D/C/B,/ | A,CEG e2 d/c/B/A/ | d2 D/E/F/G/ A2 B2 | %422
 DCB,C A,2 d/c/B/A/ | d2 D/E/F/G/ A2 B2 | =c/B/A B3 A/G/ A/G/F | G/F/E F3 E/D/ E/D/C | %426
 DA,F,A, D,2 A,/B,/C/D/ | E2 C/D/E/F/ G2 A,/B,/C/D/ | E2 C/D/E/F/ G2 FE | FAdF EDA,c | d6 D2 | %431
 D2 E2- E2 C2 | DE F2- F2 D2 | G,2 E2 A,2 C2 | D2 A,2 D,2 D2 | D2 E2- E2 C2 | DE F2- F2 D2 | %437
 G,2 E2 A,2 C2 | D2 A,2 D,2 A2 | A2 B2- B2 A2 | GF G2 E2 G2 | A2 G2- G2 F2 | EDCB, A,G, D2 | %443
 D2 E2- E2 C2 | DE F2- F2 D2 | G,2 E2 A,2 C2 | D6 A2 | A2 B2- B2 A2 | GF G2 E2 G2 | A2 G2- G2 F2 | %450
 EDCB, A,G, D2 | D2 E2- E2 C2 | DE F2- F2 D2 | G,2 E2 A,2 C2 | D6 D/E/F/G/ | A2 BG A2 BF | %456
 G2 E2 E,2 C/D/E/F/ | G2 AF G2 AE | F2 D2 D,2 D/E/F/G/ | A2 A,/B,/C/D/ E2 G2 | GFED E2 D/E/F/G/ | %461
 A2 A,/B,/C/D/ E2 G2 | GFED E2 E/F/^G/A/ | B2 ^G/A/B/c/ d2 E/F/G/A/ | B2 ^G/A/B/c/ d2 cB | %465
 cAFA DBE^G | A2 C2 A,2 A,/B,/C/D/ | E2 FD E2 AE | F2 D2 D,2 G/F/E/D/ | %469
 C2 E/D/C/B,/ ^A,2 C/B,/A,/^G,/ | F,CE^A c2 F/E/D/C/ | D2 B,,/C,/D,/E,/ F,2 c/B/^A/^G/ | %472
 ^A2 F,/^G,/^A,/B,/ C2 f/e/d/c/ | d2 d/c/B/^A/ B2 B/=A/G/F/ | G2 G/F/E/D/ C2 B^A | BGEG CBF^A | %476
 B2 F,2 B,,2 B,/C/^D/E/ | F2 GE F2 BF | AGFE dcBA | d2 D/E/F/G/ A2 B2 | DCB,C A,2 A,/B,/C/D/ | %481
 E2 C/D/E/F/ G2 A,/B,/C/D/ | E2 C/D/E/F/ G2 D/E/F/G/ | A2 F/G/A/B/ =c2 D/E/F/G/ | %484
 A2 F/G/A/B/ =c2 BA | BAAG AFF,F/G/ | AF/G/AG/F/ GEE,G | F/E/D/C/DA F/E/D/C/Dd | %488
 G/F/E/F/ G/F/E/F/ G/F/E/D/ C/B,/A,/G,/ | F,DBG A2 BF | G2 E2 E,2 B/A/G/F/ | %491
 E2 G/F/E/D/ C2 E/D/C/B,/ | A,CEG e2 d/c/B/A/ | d2 D/E/F/G/ A2 B2 | DCB,C A,2 d/c/B/A/ | %495
 d2 D/E/F/G/ A2 B2 | =c/B/A B3 A/G/ A/G/F | G/F/E F3 E/D/ E/D/C | DA,F,A, D,2 A,/B,/C/D/ | %499
 E2 C/D/E/F/ G2 A,/B,/C/D/ | E2 C/D/E/F/ G2 FE | FAdF EDA,c | !fermata!d6 z2 | %503
[M:12/8][Q:1/4=200]"^Prestissimo" z8 z2 z D | DCD A,B,C DCD FEF | DCD A,B,C D,3- D,2 F | %506
 EDE AFG FEF DEF | EDE AFG FEF DFE | DCD B^GA GFG EGE | DCD B^GA GFG EGD | CB,C c^GA DCD cGA | %511
 EDE c^GA FEF cGA | DCD B,DA, ^G,DF, G,DE, | A,CE ACE A,3 A,2 D | DCD A,B,C DCD FEF | %515
 DCD A,B,C D,3- D,2 F | EDE AFG FEF DEF | EDE AFG FEF DFE | DCD B^GA GFG EGE | DCD B^GA GFG EGD | %520
 CB,C c^GA DCD cGA | EDE c^GA FEF cGA | DCD B,DA, ^G,DF, G,DE, | A,CE ACE A,3 A,2 A | %524
 A^GA EFG AGA cBc | A^GA EFG A,3- A,2 c | cBc GFG EDE ^A,Ec | cBc GFG EDE ^A,CE | %528
 DCD B,DA, G,B,E GBD | CB,C A,CG, F,A,D FAC | B,A,B, G,B,F, E,G,C EGB, | ^A,CF ^AcE DFB FBA | %532
 B^AB F^GA BAB dcd | B^AB DEF B,D^E ^GBG | ^E^GB dcB AGF CFE | F^EF AEF B,A,B, AEF | %536
 CB,C A^EF DCD AEF | ^GBF ^EB^D CBD EBF | ^GBF ^EB^D CBD EBC | A^GF CF^E FCA, F,2 D | %540
 DCD A,B,C DCD FEF | DCD A,B,C D,3- D,2 F | EDE AFG FEF DEF | EDE AFG FEF DFG | AGA dB=c BAB GAB | %545
 AGA dB=c BAB GAB | =FEF DCD B,A,B, ^G,B,D | =FEF DCD B,A,B, ^G,B,D | CB,C A,CG, F,A,D FA=C | %549
 B,A,B, G,B,F, E,G,C EGB, | A,G,A, F,A,E, ^D,F,B, ^DFA, | G,F,G, E,G,D, C,E,A, CEG, | %552
 F,E,F, FCD G,F,G, FCD | A,G,A, FCD B,A,B, FCD | GFG EGD CGB, CGA, | DFA dF,A, D,3- D,2 A | %556
 A^GA EFG AGA cBc | A^GA EFG A,3- A,2 c | cBc GFG EDE ^A,Ec | cBc GFG EDE ^A,CE | %560
 DCD B,DA, G,B,E GBD | CB,C A,CG, F,A,D FAC | B,A,B, G,B,F, E,G,C EGB, | ^A,CF ^AcE DFB FBA | %564
 B^AB F^GA BAB dcd | B^AB DEF B,D^E ^GBG | ^E^GB dcB AGF CFE | F^EF AEF B,A,B, AEF | %568
 CB,C A^EF DCD AEF | ^GBF ^EB^D CBD EBF | ^GBF ^EB^D CBD EBC | A^GF CF^E FCA, F,2 D | %572
 DCD A,B,C DCD FEF | DCD A,B,C D,3- D,2 F | EDE AFG FEF DEF | EDE AFG FEF DFG | AGA dB=c BAB GAB | %577
 AGA dB=c BAB GAB | =FEF DCD B,A,B, ^G,B,D | =FEF DCD B,A,B, ^G,B,D | CB,C A,CG, F,A,D FA=C | %581
 B,A,B, G,B,F, E,G,C EGB, | A,G,A, F,A,E, ^D,F,B, ^DFA, | G,F,G, E,G,D, C,E,A, CEG, | %584
 F,E,F, FCD G,F,G, FCD | A,G,A, FCD B,A,B, FCD | GFG EGD CGB, CGA, | %587
 DFA dF,A, !fermata!D,3- D,2 z |] %588
V:2
 z8 | z8 | z8 | z8 | z8 | z8 | z8 | z8 | z8 | z8 | z8 | z8 | z8 | z8 | z8 | z8 | z8 | z8 | z8 | %19
 z8 | z8 | z8 | z8 | z8 | z8 | z8 | z8 | z8 | z8 | z8 | z8 | z8 | z8 | z8 | z8 | z8 | z8 | z8 | %38
 z8 | z8 | z8 | z8 | z8 | z8 | z8 | z8 | z8 | z8 | z8 | z8 | z8 | z8 | z8 | z8 | z8 | z8 | z8 | %57
 z8 | B,2 z2 z4 | A,2 z2 ^B,2 z2 | ^G2 z2 z4 | z8 | z8 | z8 | z8 | z8 | z8 | z8 | z8 | z8 | z8 | %71
 z8 | z8 | z8 | z8 | z8 | z8 | z8 | z8 | _B2 z2 z4 | z4 A,4 | z8 | z8 | z8 | z8 | z8 | z8 | z8 | %88
 z8 | z8 | !fermata!A,2 z2 z4 |[M:2/2] z4 z2 z z | z8 | z8 | z8 | z8 | z8 | z4 A,2 z2 | z8 | z8 | %100
 z8 | z8 | z8 | z8 | z8 | z8 | z8 | z4 z2 z z | z8 | z8 | z8 | z8 | z8 | z4 A,2 z2 | z8 | z8 | z8 | %117
 z8 | z8 | z8 | z8 | z8 | z8 | z4 z2 z z | z8 | z8 | z8 | z8 | z8 | z4 F,2 z2 | z8 | z8 | z8 | z8 | %134
 z8 | z8 | z8 | z8 | z8 | z8 | z8 | z8 | z8 | z8 | z8 | z8 | z8 | z4 A,3 z | z8 | z8 | z8 | z8 | %152
 z8 | z4 F,2 z2 | z8 | z8 | z8 | z8 | z8 | z8 | z8 | z8 | z8 | z8 | z8 | z8 | z8 | z8 | z8 | z8 | %170
 z8 | z4 !fermata!A,3 z | z8 |[M:2/2] z4 z2 z z | z2 z4 z2 | z4 z2 z2 | z2 z2 z4 | z2 z4 z2 | %178
 z4 z2 z2 | z2 z2 z4 | z2 z4 z2 | z4 z2 z2 | z2 z2 z4 | z2 z4 z2 | z4 z2 z2 | z2 z2 z4 | z2 z4 E2 | %187
 z4 D2 z2 | z2 ^G2 z4 | ^G2 z4 z2 | z4 z2 z2 | z2 z2 z4 | z2 E,4 z2 | z2 z z z2 z2 | z2 z2 z4 | %195
 z2 z4 z2 | z4 z2 z2 | z2 z2 z4 | z2 z4 z2 | z4 z2 z2 | z2 z2 z4 | z2 z4 z2 | z4 z2 z2 | z2 z2 z4 | %204
 z2 z4 z2 | z4 z2 z2 | z2 E2 z4 | D2 z4 ^G2 | z4 ^G2 z2 | z2 z2 z4 | z2 z4 z2 | z4 z2 E,2- | %212
 E,2 z4 z z | z2 z4 z2 | z4 z2 z2 | z2 z2 z4 | z2 z4 z2 | z4 z2 z2 | z2 z2 z4 | z2 z4 z2 | %220
 z4 z2 z2 | z2 z2 z4 | z2 z4 z2 | z4 z2 z2 | z2 z2 z4 | z2 z4 z2 | z4 z2 z2 | z2 z2 z4 | z2 z4 z2 | %229
 z4 z2 z2 | z2 z2 z4 | z2 z4 z2 | z4 z2 z2 | z2 z2 z4 | z2 z4 A,2 | z4 G,2 z2 | z2 C2 z4 | %237
 C2 z4 z2 | z4 z2 z2 | z2 z2 z4 | z2 A,4 A,2- | A,2 z z z2 z2 | z2 z2 z4 | z2 z4 z2 | z4 z2 z2 | %245
 z2 z2 z4 | z2 z4 z2 | z4 z2 z2 | z2 z2 z4 | z2 z4 z2 | z4 z2 z2 | z2 z2 z4 | z2 z4 z2 | z4 z2 z2 | %254
 z2 z2 z4 | z2 z4 z2 | z4 z2 z2 | z2 z2 z4 | z2 z4 z2 | z4 z2 z2 | z2 z2 z4 | z2 z4 z2 | z4 z2 z2 | %263
 z2 A,2 z4 | G,2 z4 C2 | z4 C2 z2 | z2 z2 z4 | z2 z4 z2 | z4 z2 A,2- | A,2 !fermata!A,4 z2 | %270
[M:3/4] D6 | D2 z4 | A,6 | A,2 z4 | A, z z4 | A,3/2 z/ z4 | ^D z z4 | E2 z4 | C2 z4 | D2 z4 | %280
 E2 z4 | z2 z4 | D6 | D2 z4 | A,6 | A,2 z4 | A, z z4 | A,3/2 z/ z4 | ^D z z4 | E2 z4 | C2 z4 | %291
 D2 z4 | E2 z4 | z2 z4 | A,6 | ^A,3/2 z/ z4 | F2 E2 ^E2 | C3/2 z/ z4 | A,2 G,2 F,2 | %299
 B,3/2 z/ z2 D2 | E2 F4 | z6 | E2 z4 | E2 z4 | A,2 z2 ^G,2 | A,3/2 z/ z4 | F,2 z4 | G,2 z4 | %308
 A,2 z4 | B,2 z4 | ^G,2 z4 | E z z4 | D z z4 | z6 | A,6 | ^A,3/2 z/ z4 | F2 E2 ^E2 | C3/2 z/ z4 | %318
 A,2 G,2 F,2 | B,3/2 z/ z2 D2 | E2 F4 | z6 | E2 z4 | E2 z4 | A,2 z2 ^G,2 | A,3/2 z/ z4 | F,2 z4 | %327
 G,2 z4 | A,2 z4 | B,2 z4 | ^G,2 z4 | E z z4 | D z z4 | z6 |[M:2/2] z4 z2 z2 | z8 | z8 | z8 | z8 | %339
 z8 | z8 | z8 | z8 | z8 | z8 | z8 | z4 z2 z2 | z8 | z8 | z8 | z8 | z8 | z8 | z8 | z8 | z8 | z8 | %357
 z8 | z4 z2 z2 | z8 | z8 | z8 | z8 | z8 | z8 | z8 | z8 | z8 | z8 | z8 | z8 | z8 | z8 | z8 | z8 | %375
 z8 | z8 | z8 | z8 | z8 | z8 | z8 | z8 | z8 | z8 | z8 | z8 | z8 | z8 | z8 | z8 | z8 | z8 | z8 | %394
 A,6 z2 | z8 | z8 | z8 | z8 | z8 | z8 | z8 | z8 | z8 | z8 | z8 | z8 | z8 | z8 | z8 | z8 | z8 | z8 | %413
 z8 | z8 | z8 | z8 | z8 | z8 | z8 | z8 | z8 | z8 | z8 | z8 | z8 | z8 | z8 | z8 | z8 | A,6 F,2 | %431
 G,2 z2 A,2 z2 | B,2 z2 F,2 z2 | z8 | z4 z2 F,2 | G,2 z2 A,2 z2 | B,2 z2 F,2 z2 | z8 | z4 z2 D2 | %439
 G2 z2 F2 z2 | z8 | C2 z2 D2 z2 | z4 z2 F,2 | G,2 z2 A,2 z2 | B,2 z2 F,2 z2 | z8 | A,6 D2 | %447
 G2 z2 F2 z2 | z8 | C2 z2 D2 z2 | z4 z2 F,2 | G,2 z2 A,2 z2 | B,2 z2 F,2 z2 | z8 | A,6 z2 | z8 | %456
 z8 | z8 | z8 | z8 | z8 | z8 | z8 | z8 | z8 | z8 | z4 z2 z2 | z8 | z8 | z8 | z8 | z8 | z8 | z8 | %474
 z8 | z8 | z8 | z8 | z8 | z8 | z8 | z8 | z8 | z8 | z8 | z8 | z8 | z8 | z8 | z8 | z8 | z8 | z8 | %493
 z8 | z8 | z8 | z8 | z8 | z8 | z8 | z8 | z8 | !fermata!A,6 z2 |[M:12/8] z8 z2 z z | z12 | z12 | %506
 z12 | z12 | z12 | z12 | z12 | z12 | z12 | z6 z3 z2 z | z12 | z12 | z12 | z12 | z12 | z12 | z12 | %521
 z12 | z12 | z6 z3 z2 z | z12 | z12 | z12 | z12 | z12 | z12 | z12 | z12 | z12 | z12 | z12 | z12 | %536
 z12 | z12 | z12 | z12 | z12 | z6 z3 z2 z | z12 | z12 | z12 | z12 | z12 | z12 | z12 | z12 | z12 | %551
 z12 | z12 | z12 | z12 | z6 z3 z2 z | z12 | z12 | z12 | z12 | z12 | z12 | z12 | z12 | z12 | z12 | %566
 z12 | z12 | z12 | z12 | z12 | z12 | z12 | z6 z3 z2 z | z12 | z12 | z12 | z12 | z12 | z12 | z12 | %581
 z12 | z12 | z12 | z12 | z12 | z12 | z6 z3 z2 z |] %588
V:3
 x8 | x8 | x8 | x8 | x8 | x8 | x8 | x8 | x8 | x8 | x8 | x8 | x8 | x8 | x8 | x8 | x8 | x8 | x8 | %19
 x8 | x8 | x8 | x8 | x8 | x8 | x8 | x8 | x8 | x8 | x8 | x8 | x8 | x8 | x8 | x8 | x8 | x8 | x8 | %38
 x8 | x8 | x8 | x8 | x8 | x8 | x8 | x8 | x8 | x8 | x8 | x8 | x8 | x8 | x8 | x8 | x8 | x8 | x8 | %57
 x8 | ^E2 z2 z4 | F2 z2 F2 z2 | x8 | x8 | x8 | x8 | x8 | x8 | x8 | x8 | x8 | x8 | x8 | x8 | x8 | %73
 x8 | x8 | x8 | x8 | x8 | x8 | x8 | x8 | x8 | x8 | x8 | x8 | x8 | x8 | x8 | x8 | x8 | F2 z2 z4 | %91
[M:2/2] x8 | x8 | x8 | x8 | x8 | x8 | x8 | x8 | x8 | x8 | x8 | x8 | x8 | x8 | x8 | x8 | x8 | x8 | %109
 x8 | x8 | x8 | x8 | x8 | x8 | x8 | x8 | x8 | x8 | x8 | x8 | x8 | x8 | x8 | x8 | x8 | x8 | x8 | %128
 x8 | z4 D2 z2 | x8 | x8 | x8 | x8 | x8 | x8 | x8 | x8 | x8 | x8 | x8 | x8 | x8 | x8 | x8 | x8 | %146
 x8 | z4 F3 z | x8 | x8 | x8 | x8 | x8 | z4 D2 z2 | x8 | x8 | x8 | x8 | x8 | x8 | x8 | x8 | x8 | %163
 x8 | x8 | x8 | x8 | x8 | x8 | x8 | x8 | z4 F3 x | x8 |[M:2/2] x8 | x8 | x8 | x8 | x8 | x8 | x8 | %180
 x8 | x8 | x8 | x8 | x8 | x8 | x8 | x8 | x8 | x8 | x8 | x8 | x8 | x8 | x8 | x8 | x8 | x8 | x8 | %199
 x8 | x8 | x8 | x8 | x8 | x8 | x8 | x8 | x8 | x8 | x8 | x8 | x8 | x8 | x8 | x8 | x8 | x8 | x8 | %218
 x8 | x8 | x8 | x8 | x8 | x8 | x8 | x8 | x8 | x8 | x8 | x8 | x8 | x8 | x8 | x8 | x8 | x8 | x8 | %237
 x8 | x8 | x8 | x8 | x8 | x8 | x8 | x8 | x8 | x8 | x8 | x8 | x8 | x8 | x8 | x8 | x8 | x8 | x8 | %256
 x8 | x8 | x8 | x8 | x8 | x8 | x8 | x8 | x8 | x8 | x8 | x8 | x8 | x8 |[M:3/4] x6 | x6 | x6 | x6 | %274
 x6 | x6 | x6 | x6 | x6 | x6 | x6 | x6 | x6 | x6 | x6 | x6 | x6 | x6 | x6 | x6 | x6 | x6 | x6 | %293
 x6 | x6 | x6 | x6 | x6 | x6 | x6 | x6 | x6 | x6 | x6 | x6 | x6 | x6 | x6 | x6 | x6 | x6 | x6 | %312
 x6 | x6 | x6 | x6 | x6 | x6 | x6 | x6 | x6 | x6 | x6 | x6 | x6 | x6 | x6 | x6 | x6 | x6 | x6 | %331
 x6 | x6 | x6 |[M:2/2] x8 | x8 | x8 | x8 | x8 | x8 | x8 | x8 | x8 | x8 | x8 | x8 | x8 | x8 | x8 | %349
 x8 | x8 | x8 | x8 | x8 | x8 | x8 | x8 | x8 | x8 | x8 | x8 | x8 | x8 | x8 | x8 | x8 | x8 | x8 | %368
 x8 | x8 | x8 | x8 | x8 | x8 | x8 | x8 | x8 | x8 | x8 | x8 | x8 | x8 | x8 | x8 | x8 | x8 | x8 | %387
 x8 | x8 | x8 | x8 | x8 | x8 | x8 | F6 x2 | x8 | x8 | x8 | x8 | x8 | x8 | x8 | x8 | x8 | x8 | x8 | %406
 x8 | x8 | x8 | x8 | x8 | x8 | x8 | x8 | x8 | x8 | x8 | x8 | x8 | x8 | x8 | x8 | x8 | x8 | x8 | %425
 x8 | x8 | x8 | x8 | x8 | F6 z2 | x8 | x8 | x8 | x8 | x8 | x8 | x8 | x8 | x8 | x8 | x8 | x8 | x8 | %444
 x8 | x8 | x8 | x8 | x8 | x8 | x8 | x8 | x8 | x8 | x8 | x8 | x8 | x8 | x8 | x8 | x8 | x8 | x8 | %463
 x8 | x8 | x8 | x8 | x8 | x8 | x8 | x8 | x8 | x8 | x8 | x8 | x8 | x8 | x8 | x8 | x8 | x8 | x8 | %482
 x8 | x8 | x8 | x8 | x8 | x8 | x8 | x8 | x8 | x8 | x8 | x8 | x8 | x8 | x8 | x8 | x8 | x8 | x8 | %501
 x8 | F6 x2 |[M:12/8] x12 | x12 | x12 | x12 | x12 | x12 | x12 | x12 | x12 | x12 | x12 | x12 | x12 | %516
 x12 | x12 | x12 | x12 | x12 | x12 | x12 | x12 | x12 | x12 | x12 | x12 | x12 | x12 | x12 | x12 | %532
 x12 | x12 | x12 | x12 | x12 | x12 | x12 | x12 | x12 | x12 | x12 | x12 | x12 | x12 | x12 | x12 | %548
 x12 | x12 | x12 | x12 | x12 | x12 | x12 | x12 | x12 | x12 | x12 | x12 | x12 | x12 | x12 | x12 | %564
 x12 | x12 | x12 | x12 | x12 | x12 | x12 | x12 | x12 | x12 | x12 | x12 | x12 | x12 | x12 | x12 | %580
 x12 | x12 | x12 | x12 | x12 | x12 | x12 | x12 |] %588
V:4
 x8 | x8 | x8 | x8 | x8 | x8 | x8 | x8 | x8 | x8 | x8 | x8 | x8 | x8 | x8 | x8 | x8 | x8 | x8 | %19
 x8 | x8 | x8 | x8 | x8 | x8 | x8 | x8 | x8 | x8 | x8 | x8 | x8 | x8 | x8 | x8 | x8 | x8 | x8 | %38
 x8 | x8 | x8 | x8 | x8 | x8 | x8 | x8 | x8 | x8 | x8 | x8 | x8 | x8 | x8 | x8 | x8 | x8 | x8 | %57
 x8 | C,2 z2 z4 | C,2 z2 z4 | C2 z2 z4 | x8 | x8 | x8 | x8 | x8 | x8 | x8 | x8 | x8 | x8 | x8 | %72
 x8 | x8 | x8 | x8 | x8 | x8 | x8 | G,2 z2 z4 | x8 | x8 | x8 | x8 | x8 | x8 | x8 | x8 | x8 | x8 | %90
 D,2 z2 z4 |[M:2/2] x8 | x8 | x8 | x8 | x8 | x8 | z4 D,2 z2 | x8 | x8 | x8 | x8 | x8 | x8 | x8 | %105
 x8 | x8 | x8 | x8 | x8 | x8 | x8 | x8 | z4 D,2 z2 | x8 | x8 | x8 | x8 | x8 | x8 | x8 | x8 | x8 | %123
 x8 | x8 | x8 | x8 | x8 | x8 | z4 B,,2 z2 | x8 | x8 | x8 | x8 | x8 | x8 | x8 | x8 | x8 | x8 | x8 | %141
 x8 | x8 | x8 | x8 | x8 | x8 | z4 D,3 z | x8 | x8 | x8 | x8 | x8 | z4 B,,2 z2 | x8 | x8 | x8 | x8 | %158
 x8 | x8 | x8 | x8 | x8 | x8 | x8 | x8 | x8 | x8 | x8 | x8 | x8 | z4 D,3 x | x8 |[M:2/2] x8 | x8 | %175
 x8 | x8 | x8 | x8 | x8 | x8 | x8 | x8 | x8 | x8 | x8 | x8 | x8 | x2 B,2 z4 | x8 | x8 | x8 | x8 | %193
 x8 | x8 | x8 | x8 | x8 | x8 | x8 | x8 | x8 | x8 | x8 | x8 | x8 | x8 | x6 B,2 | z4 x4 | x8 | x8 | %211
 x8 | x8 | x8 | x8 | x8 | x8 | x8 | x8 | x8 | x8 | x8 | x8 | x8 | x8 | x8 | x8 | x8 | x8 | x8 | %230
 x8 | x8 | x8 | x8 | x8 | x8 | x2 E,2 z4 | x8 | x8 | x8 | x6 D,2- | D,2 z z x4 | x8 | x8 | x8 | %245
 x8 | x8 | x8 | x8 | x8 | x8 | x8 | x8 | x8 | x8 | x8 | x8 | x8 | x8 | x8 | x8 | x8 | x8 | x8 | %264
 x6 E,2 | z4 x4 | x8 | x8 | x8 | x2 D,4 x2 |[M:3/4] x6 | G,2 z4 | x6 | D,2 z4 | x6 | D,3/2 z/ z4 | %276
 x6 | x6 | x6 | x6 | x6 | x6 | x6 | G,2 z4 | x6 | D,2 z4 | x6 | D,3/2 z/ z4 | x6 | x6 | x6 | x6 | %292
 x6 | x6 | x6 | x6 | B,2 G,2 ^G,2 | F,3/2 z/ z4 | x6 | E,3/2 z/ z4 | x6 | x6 | ^G,2 z4 | A,2 z4 | %304
 D,2 z2 B,,2 | x6 | x6 | x6 | x6 | x6 | x6 | G, z z4 | F, z G, z z2 | x6 | x6 | x6 | B,2 G,2 ^G,2 | %317
 F,3/2 z/ z4 | x6 | E,3/2 z/ z4 | x6 | x6 | ^G,2 z4 | A,2 z4 | D,2 z2 B,,2 | x6 | x6 | x6 | x6 | %329
 x6 | x6 | G, z z4 | F, z G, z z2 | x6 |[M:2/2] x8 | x8 | x8 | x8 | x8 | x8 | x8 | x8 | x8 | x8 | %344
 x8 | x8 | x8 | x8 | x8 | x8 | x8 | x8 | x8 | x8 | x8 | x8 | x8 | x8 | x8 | x8 | x8 | x8 | x8 | %363
 x8 | x8 | x8 | x8 | x8 | x8 | x8 | x8 | x8 | x8 | x8 | x8 | x8 | x8 | x8 | x8 | x8 | x8 | x8 | %382
 x8 | x8 | x8 | x8 | x8 | x8 | x8 | x8 | x8 | x8 | x8 | x8 | D,6 x2 | x8 | x8 | x8 | x8 | x8 | x8 | %401
 x8 | x8 | x8 | x8 | x8 | x8 | x8 | x8 | x8 | x8 | x8 | x8 | x8 | x8 | x8 | x8 | x8 | x8 | x8 | %420
 x8 | x8 | x8 | x8 | x8 | x8 | x8 | x8 | x8 | x8 | D,6 z2 | x8 | x8 | x8 | x8 | x8 | x8 | x8 | x8 | %439
 x8 | x8 | x8 | x8 | x8 | x8 | x8 | D,6 x2 | x8 | x8 | x8 | x8 | x8 | x8 | x8 | D,6 z2 | x8 | x8 | %457
 x8 | x8 | x8 | x8 | x8 | x8 | x8 | x8 | x8 | x8 | x8 | x8 | x8 | x8 | x8 | x8 | x8 | x8 | x8 | %476
 x8 | x8 | x8 | x8 | x8 | x8 | x8 | x8 | x8 | x8 | x8 | x8 | x8 | x8 | x8 | x8 | x8 | x8 | x8 | %495
 x8 | x8 | x8 | x8 | x8 | x8 | x8 | D,6 x2 |[M:12/8] x12 | x12 | x12 | x12 | x12 | x12 | x12 | %510
 x12 | x12 | x12 | x12 | x12 | x12 | x12 | x12 | x12 | x12 | x12 | x12 | x12 | x12 | x12 | x12 | %526
 x12 | x12 | x12 | x12 | x12 | x12 | x12 | x12 | x12 | x12 | x12 | x12 | x12 | x12 | x12 | x12 | %542
 x12 | x12 | x12 | x12 | x12 | x12 | x12 | x12 | x12 | x12 | x12 | x12 | x12 | x12 | x12 | x12 | %558
 x12 | x12 | x12 | x12 | x12 | x12 | x12 | x12 | x12 | x12 | x12 | x12 | x12 | x12 | x12 | x12 | %574
 x12 | x12 | x12 | x12 | x12 | x12 | x12 | x12 | x12 | x12 | x12 | x12 | x12 | x12 |] %588

